X:1
T:Married Life from "Up"
T:Married Life from "Up"
T:Michael Giacchino
C:Michael Giacchino
%%score 1 ( 2 3 )
L:1/8
Q:1/4=170
M:3/4
K:F
V:1 treble nm="Violín" snm="Vln."
V:2 bass nm="Violonchelo" snm="Vc."
V:3 bass 
V:1
 z6 | z6 | z6 | z2 z F AF | E6- | E2 z F AF | D2 z D FD | C4 z D | A2 G2 z D | A2 G2{/E} F2 | D6- | %11
 D2 z F GF | E6- | E2 z E GE | C2 z C EC | B,2 z B, CB, | z2 A,2 B,2 | C3 D E2 | z2 C2 D2 | %19
 E3 f af | e6- | e2 z f af | d2 z d fd | c4 z d | a2 g2 z d | a2 g2{/e} f2 | d6- | d2 z f gf | %28
 e6- | e2 z e ge | c2 z c ec | B2 z B cB | z2 A2 B2 | c3 d e2 | z2 c2 d2 | e3 F AF | E6- | %37
 E2 z F AF | D2 z F Ad | e4 z d | f2 e2 z d | A2 =B2 d2 | f6 | d2 z f gf | [Ge]6- | [Ge]2 z e ge | %46
 [Gc]2 z c ec | Bc de ga | Tb6- | b4 z2 | b2 a2 z g | d'2 a2 g2 | a6 | f6 | a2 g2 z f | a2 _g2 d2 | %56
 =B2 _d=d _e=e | f_g =g_a =ab | ba _ag _gf | e_e d_d c=B | e2 g2 z d | e2 B2 =B2 | c6 | cd ef af | %64
 e6- | e2 z f ae | d2 z d fa | c'4 z f | a2 g2 z d | a2 g2 f2 | d6- | d2 z f gf | e6- | e2 z e ge | %74
 c2 z c ec | !fermata!B6 | z2 A2 B2 | c2 z d e2 | z2 c2 d2 | e2 z f af | e6- | e6- | e6- | %83
 e2 z F AF | E6- | E6- | E6- | E2 z F AF | E6- | E2 z F AE | D2 z D FD | C4 z =B, | A2 G2 z D | %93
 A2 G2 F2 | D6- | D2 z F GF | E6- | E2 z E GE | C2 z C EC | B,6 | z2 A,2 B,2 | C3 D E2 | z2 C2 D2 | %103
 !fermata!E6 | z6 | z6 | z6 | z2 z f af | e6- | e2 z f ae | d2 z d fd | c4 z =B | a2 g2 z d | %113
 a2 g2 f2 | d6- | d2 z f gf | e6- | e2 z e ge | c2 z c ec | B6 | z2 A2 B2 | c3 d e2 | z2 c2 d2 | %123
 e3 f af | c'6- | c'6 | [Af]6 |] %127
V:2
 F,,2 [F,A,]2 [F,A,]2 | C,,2 [F,A,]2 [F,A,]2 | D,,2 [F,A,]2 [F,A,]2 | C,2 D,2 E,2 | %4
 F,,2 [F,A,]2 [F,A,]2 | C,,2 [F,A,]2 [F,A,]2 | D,,2 [C,A,]2 [C,A,]2 | C,,2 [C,A,]2 [C,A,]2 | %8
 =B,,2 [D,F,]2 [D,F,]2 | =B,,2 [D,G,]2 [D,G,]2 | =B,,2 [D,F,]2 [D,F,]2 | =B,,2 [D,G,]2 [D,G,]2 | %12
 E,,2 [C,G,]2 [C,G,]2 | D,,2 [C,G,]2 [C,G,]2 | C,,2 [G,,E,]2 [G,,E,]2 | B,,2 [E,G,]2 [E,G,]2 | %16
 F,,2 [F,A,]2 [F,A,]2 | F,,2 [F,A,]2 [F,A,]2 | C,2 [E,G,]2 [E,G,]2 | [C,,G,,]6 | %20
 F,,2 [F,A,]2 [F,A,]2 | C,,2 [F,A,]2 [F,A,]2 | D,,2 [C,A,]2 [C,A,]2 | C,,2 [C,A,]2 [C,A,]2 | %24
 =B,,2 [D,F,]2 [D,F,]2 | =B,,2 [D,G,]2 [D,G,]2 | =B,,2 [D,F,]2 [D,F,]2 | =B,,2 [D,G,]2 [D,G,]2 | %28
 E,,2 [C,G,]2 [C,G,]2 | D,,2 [C,G,]2 [C,G,]2 | C,,2 [G,,E,]2 [G,,E,]2 | B,,2 [E,G,]2 [E,G,]2 | %32
 F,,2 [F,A,]2 [F,A,]2 | F,,2 [F,A,]2 [F,A,]2 | C,2 [E,G,]2 [E,G,]2 | [C,,G,,]6 | %36
 F,,2 [F,A,]2 [F,A,]2 | C,,2 [F,A,]2 [F,A,]2 | F,,2 [F,A,]2 [F,A,]2 | C,,2 [F,A,]2 [F,A,]2 | %40
 =B,,2 [D,F,]2 [D,F,]2 | =B,,2 [D,G,]2 [D,G,]2 | =B,,2 [D,F,]2 [D,F,]2 | =B,,2 [D,G,]2 [D,G,]2 | %44
 [E,C]6 | [D,C]6 | [C,E,]6 | E,4 G,2 | C,2 [E,C]2 [E,C]2 | G,,2 [E,C]2 [E,C]2 | C,2 [E,C]2 [E,C]2 | %51
 G,,2 [E,C]2 [E,C]2 | F,,2 [F,A,]2 [F,A,]2 | C,2 [F,A,]2 [F,A,]2 | F,,2 [F,A,]2 [F,A,]2 | %55
 D,2 [F,=B,]2 [F,B,]2 | =B,,2 [F,=B,-]4 | [F,B,]6 | D,2 [F,=B,-]4 | [F,B,]6 | C2 G,2 E,2 | %61
 E,2 G,2 C2 | _A,2 C2 E2 | E2 C2 _A,2 | F,2 [A,C]4 | C,2 [A,C]4 | D,2 [A,C]4 | C,2 [A,C]4 | %68
 =B,,2 [G,=B,]4 | G,,2 [G,=B,]4 | =B,,2 [G,=B,]4 | D,2 [G,=B,]4 | E,2 [G,C]4 | D,2 [G,C]4 | %74
 C,2 [G,C]4 | !fermata!B,,6 | [F,A,]6- | [F,A,]6 | [C,E,]6- | [C,E,]6 | F,2 [A,C]2 [A,C]2 | %81
 C,2 [A,C]2 [A,C]2 | D,2 [A,C]2 [A,C]2 | C,,2 [A,C]4- | [A,C]4 FE- | E6 | F6- | F2 z2 z2 | %88
"^pizz." [F,,C,A,]6 | [E,,C,A,]6 | [F,,C,A,]6 | [_E,,C,A,]6 | [D,,=B,,G,]6 | [D,G,]6 | %94
 [D,,=B,,G,]6 | [D,G,]6 | [E,C]6 | [D,C]6 | [C,E,]6 | [B,,E,]6 | [F,,A,,]6- | [F,,A,,]6 | %102
 [E,,G,,]6 | !fermata![E,,C,]6 | [A,F]6 | [A,E]6 | [A,F]6 | [A,E]6 | [A,F]6 | [A,E]6 | [A,F]6 | %111
 [_E,A,]6 | [=B,,D,]6 | [A,,G,]6 | [G,,=B,,D,]6 | [F,,=B,,D,]6 | [C,E,]6 | C,,6 | [G,B,]6 | %119
 [G,B,]6 | [C,F,A,]6- | [C,F,A,]6 | [G,,E,C]6- | [G,,E,C]6 | [F,,C,A,F]6 | [F,,C,A,E]6 | %126
 [F,,C,A,F]6 |] %127
V:3
 x6 | x6 | x6 | x6 | x6 | x6 | x6 | x6 | x6 | x6 | x6 | x6 | x6 | x6 | x6 | x6 | x6 | x6 | x6 | %19
 x6 | x6 | x6 | x6 | x6 | x6 | x6 | x6 | x6 | x6 | x6 | x6 | x6 | x6 | x6 | x6 | x6 | x6 | x6 | %38
 x6 | x6 | x6 | x6 | x6 | x6 | x6 | x6 | x6 | B,,6 | x6 | x6 | x6 | x6 | x6 | x6 | x6 | x6 | x6 | %57
 x6 | x6 | x6 | x6 | x6 | x6 | x6 | x6 | x6 | x6 | x6 | x6 | x6 | x6 | x6 | x6 | x6 | x6 | x6 | %76
 x6 | x6 | x6 | x6 | x6 | x6 | x6 | x6 | x6 | x6 | x6 | x6 | x6 | x6 | x6 | x6 | x6 | x6 | x6 | %95
 x6 | x6 | x6 | x6 | x6 | x6 | x6 | x6 | x6 | x6 | x6 | x6 | x6 | x6 | x6 | x6 | x6 | x6 | x6 | %114
 x6 | x6 | x6 | x6 | x6 | x6 | x6 | x6 | x6 | x6 | x6 | x6 | x6 |] %127

